symbols/web/more/materialsymbolsrounded/more_wght200_24px.svg

<svg xmlns="http://www.w3.org/2000/svg" height="24" width="24"><path d="M9.375 12.775q.325 0 .55-.238.225-.237.225-.537 0-.3-.225-.538-.225-.237-.55-.237-.3 0-.525.237-.225.238-.225.538 0 .3.225.537.225.238.525.238Zm3.5 0q.325 0 .55-.238.225-.237.225-.537 0-.3-.225-.538-.225-.237-.55-.237-.3 0-.525.237-.225.238-.225.538 0 .3.225.537.225.238.525.238Zm3.5 0q.325 0 .55-.238.225-.237.225-.537 0-.3-.225-.538-.225-.237-.55-.237-.3 0-.525.237-.225.238-.225.538 0 .3.225.537.225.238.525.238ZM9.5 18q-.55 0-1.012-.262-.463-.263-.788-.713L4.775 12.95Q4.5 12.5 4.5 12q0-.5.275-.95L7.7 6.925q.3-.425.775-.675Q8.95 6 9.5 6h8.775q.675 0 1.138.475.462.475.462 1.15v8.75q0 .675-.462 1.15-.463.475-1.138.475Zm-4.175-6 3.225 4.5q.15.2.4.35.25.15.55.15h8.775q.225 0 .413-.188.187-.187.187-.437v-8.75q0-.25-.187-.437Q18.5 7 18.275 7H9.5q-.3 0-.55.15-.25.15-.4.35Zm13.55 0V7v10-.5Z"/></svg>

<svg xmlns="http://www.w3.org/2000/svg" height="24" width="24"><path d="M9.375 12.775Q9.7 12.775 9.925 12.537Q10.15 12.3 10.15 12Q10.15 11.7 9.925 11.462Q9.7 11.225 9.375 11.225Q9.075 11.225 8.85 11.462Q8.625 11.7 8.625 12Q8.625 12.3 8.85 12.537Q9.075 12.775 9.375 12.775ZM12.875 12.775Q13.2 12.775 13.425 12.537Q13.65 12.3 13.65 12Q13.65 11.7 13.425 11.462Q13.2 11.225 12.875 11.225Q12.575 11.225 12.35 11.462Q12.125 11.7 12.125 12Q12.125 12.3 12.35 12.537Q12.575 12.775 12.875 12.775ZM16.375 12.775Q16.7 12.775 16.925 12.537Q17.15 12.3 17.15 12Q17.15 11.7 16.925 11.462Q16.7 11.225 16.375 11.225Q16.075 11.225 15.85 11.462Q15.625 11.7 15.625 12Q15.625 12.3 15.85 12.537Q16.075 12.775 16.375 12.775ZM9.5 18Q8.95 18 8.488 17.738Q8.025 17.475 7.7 17.025L4.775 12.95Q4.5 12.5 4.5 12Q4.5 11.5 4.775 11.05L7.7 6.925Q8 6.5 8.475 6.25Q8.95 6 9.5 6H18.275Q18.95 6 19.413 6.475Q19.875 6.95 19.875 7.625V16.375Q19.875 17.05 19.413 17.525Q18.95 18 18.275 18ZM5.325 12 8.55 16.5Q8.7 16.7 8.95 16.85Q9.2 17 9.5 17H18.275Q18.5 17 18.688 16.812Q18.875 16.625 18.875 16.375V7.625Q18.875 7.375 18.688 7.188Q18.5 7 18.275 7H9.5Q9.2 7 8.95 7.15Q8.7 7.3 8.55 7.5ZM18.875 12V7.5Q18.875 7.3 18.875 7.15Q18.875 7 18.875 7Q18.875 7 18.875 7.188Q18.875 7.375 18.875 7.625V16.375Q18.875 16.625 18.875 16.812Q18.875 17 18.875 17Q18.875 17 18.875 16.85Q18.875 16.7 18.875 16.5Z"/></svg>
